X: 1811
T: The Fearless Boys
M:C|
L:1/8
B:O'Neill's 1811
N:"collected by J. O'Neill"
Z:"Transcribed by Bob Safranek, rjs@gsp.org"
K:G
   (BA) | (G>B) D2 D2 EF | GFGA  G2 B2 | A^GAB cBA=G | B2 E2 E2 (BA) |
          (G>B) D2 D2 EF | GFGA  G2 d2 | e^def ge=dc | B2 G2 G2     :|
|: (AB) |    cBcd  e2 dc | B^ABc d2 cB | A^GAB cBA=G | B2 E2 E2 (BA) |
          (G>B) D2 D2 EF | GFGA  G2 d2 | e^def ge=dc | B2 G2 G2     :|


